COLOR/categories 16/16/applications-chat.svg

<svg height="16" width="16" xmlns="http://www.w3.org/2000/svg" xmlns:xlink="http://www.w3.org/1999/xlink"><linearGradient id="a" gradientUnits="userSpaceOnUse" x1="333.7879924375" x2="333.8497201875" y1="204.275844625" y2="195.40917825"><stop offset="0" stop-color="#f3e6d2" stop-opacity=".996078"/><stop offset="1" stop-color="#f7f4ee"/></linearGradient><linearGradient id="b" gradientUnits="userSpaceOnUse" x1="330.00000158615" x2="330.00000158615" y1="195.62791941281" y2="205.65883732337"><stop offset="0" stop-color="#fdfdfb"/><stop offset="1" stop-color="#f0e9df"/></linearGradient><path d="m4.4056021.50000636c-3.47603994 0-3.85005997.30899-3.83301997 3.32331004v4.1766902 4.1766794c-.017 3.01433.35698003 3.32332 3.83301997 3.32332h7.1899599c3.47605 0 3.83303-.30895 3.83303-3.32332v-4.1766794-4.1766902c0-3.01436004-.35699-3.32331004-3.83303-3.32331004z" fill="#f4843f"/><g enable-background="new" transform="matrix(.71428571 0 0 .71428571 -229.15698 -135.02921)"><path d="m324.95108 199.00894v4.28754c0 .61475.11599 1.05706.34248 1.32669.2157.25884.63604.39153 1.26157.39153h1.48562l1.95918 1.38308 1.95935-1.38308h5.38774c.62553 0 1.04587-.13269 1.26158-.39153.22648-.26963.34248-.71194.34248-1.32669v-4.28754z" fill="url(#a)"/><path d="m326.55513 194.99259c-.62549-.008-1.04579.13979-1.26149.39863-.22649.26963-.34256.712-.34256 1.32674v6.36286l3.08966 1.93388 1.95926 1.38301 1.95924-1.38301h.00001l6.99183-5.30906v-2.98768c0-.61475-.11607-1.05711-.34255-1.32674-.2157-.25884-.63596-.39863-1.26149-.39863h-1.04399-6.90757z" fill="url(#b)"/></g><path d="m4.40625.5c-3.47603994 0-3.85102437.30989871-3.83398438 3.3242188v.5c-.01703999-3.0143201.35794444-3.3242188 3.83398438-3.3242188h7.189453c3.47604 0 3.832031.3098588 3.832031 3.3242188v-.5c0-3.01436009-.355991-3.3242188-3.832031-3.3242188z" fill="#fff" opacity=".3"/><path d="m11.593219 15.5c3.47604 0 3.851025-.309899 3.833985-3.324219v-.5c.01704 3.01432-.357945 3.324219-3.833985 3.324219h-7.1894528c-3.47604001 0-3.83203101-.309859-3.83203101-3.324219v.5c0 3.01436.355991 3.324219 3.83203101 3.324219z" opacity=".2"/></svg>

<?xml version="1.0" encoding="UTF-8" standalone="no"?>
<svg
   xmlns:osb="http://www.openswatchbook.org/uri/2009/osb"
   xmlns:dc="http://purl.org/dc/elements/1.1/"
   xmlns:cc="http://creativecommons.org/ns#"
   xmlns:rdf="http://www.w3.org/1999/02/22-rdf-syntax-ns#"
   xmlns:svg="http://www.w3.org/2000/svg"
   xmlns="http://www.w3.org/2000/svg"
   xmlns:xlink="http://www.w3.org/1999/xlink"
   xmlns:sodipodi="http://sodipodi.sourceforge.net/DTD/sodipodi-0.dtd"
   xmlns:inkscape="http://www.inkscape.org/namespaces/inkscape"
   height="16"
   id="svg7384"
   version="1.1"
   width="16"
   sodipodi:docname="messaging-app.svg"
   inkscape:version="0.92.4 (5da689c313, 2019-01-14)">
  <sodipodi:namedview
     pagecolor="#ffffff"
     bordercolor="#666666"
     borderopacity="1"
     objecttolerance="10"
     gridtolerance="10"
     guidetolerance="10"
     inkscape:pageopacity="0"
     inkscape:pageshadow="2"
     inkscape:window-width="1920"
     inkscape:window-height="1016"
     id="namedview23"
     showgrid="false"
     inkscape:zoom="14.75"
     inkscape:cx="-4.8135593"
     inkscape:cy="8"
     inkscape:window-x="0"
     inkscape:window-y="27"
     inkscape:window-maximized="1"
     inkscape:current-layer="svg7384" />
  <metadata
     id="metadata20854">
    <rdf:RDF>
      <cc:Work
         rdf:about="">
        <dc:title />
        <dc:format>image/svg+xml</dc:format>
        <dc:type
           rdf:resource="http://purl.org/dc/dcmitype/StillImage" />
      </cc:Work>
    </rdf:RDF>
  </metadata>
  <defs
     id="defs7386">
    <linearGradient
       id="linearGradient5606"
       osb:paint="solid">
      <stop
         id="stop5608"
         offset="0"
         style="stop-color:#000000;stop-opacity:1;" />
    </linearGradient>
    <linearGradient
       id="linearGradient4526"
       osb:paint="solid">
      <stop
         id="stop4528"
         offset="0"
         style="stop-color:#ffffff;stop-opacity:1;" />
    </linearGradient>
    <linearGradient
       id="linearGradient3600-4"
       osb:paint="gradient">
      <stop
         id="stop3602-7"
         offset="0"
         style="stop-color:#f4f4f4;stop-opacity:1" />
      <stop
         id="stop3604-6"
         offset="1"
         style="stop-color:#dbdbdb;stop-opacity:1" />
    </linearGradient>
    <clipPath
       clipPathUnits="userSpaceOnUse"
       id="clipPath983">
      <path
         sodipodi:nodetypes="scccssscsss"
         inkscape:connector-curvature="0"
         id="path985"
         d="m 325.09646,237 c -2.80769,0 -3.10979,0.28839 -3.09603,3.10176 V 244 v 3.89824 c -0.0138,2.81337 0.28834,3.10176 3.09603,3.10176 h 5.8075 C 333.71166,251 334,250.71165 334,247.89824 V 244 240.10176 C 334,237.28836 333.71165,237 330.90396,237 Z"
         style="color:#000000;display:inline;overflow:visible;visibility:visible;opacity:1;fill:#46a926;fill-opacity:1;fill-rule:nonzero;stroke:none;stroke-width:2;stroke-miterlimit:4;stroke-dasharray:none;stroke-opacity:1;marker:none;enable-background:accumulate" />
    </clipPath>
    <linearGradient
       inkscape:collect="always"
       xlink:href="#linearGradient4155"
       id="linearGradient1049"
       gradientUnits="userSpaceOnUse"
       gradientTransform="matrix(0.04375,0,0,0.04375,320.75108,189.22293)"
       x1="297.98657"
       y1="344.06662"
       x2="299.39749"
       y2="141.39996" />
    <linearGradient
       id="linearGradient4155"
       inkscape:collect="always">
      <stop
         id="stop4318-2"
         offset="0"
         style="stop-color:#f3e6d2;stop-opacity:0.99607843" />
      <stop
         id="stop4320-4"
         offset="1"
         style="stop-color:#f7f4ee;stop-opacity:1" />
    </linearGradient>
    <linearGradient
       inkscape:collect="always"
       xlink:href="#linearGradient4289"
       id="linearGradient1051"
       gradientUnits="userSpaceOnUse"
       gradientTransform="matrix(0.32424804,0,0,0.32424804,261.45275,83.84594)"
       x1="211.40375"
       y1="344.74219"
       x2="211.40375"
       y2="375.67813" />
    <linearGradient
       id="linearGradient4289"
       inkscape:collect="always">
      <stop
         id="stop4291"
         offset="0"
         style="stop-color:#fdfdfb;stop-opacity:1" />
      <stop
         id="stop4293"
         offset="1"
         style="stop-color:#f0e9df;stop-opacity:1" />
    </linearGradient>
  </defs>
  <g
     id="layer9"
     label="status"
     style="display:inline"
     transform="translate(-873.00024,107)" />
  <g
     id="layer2"
     style="display:inline"
     transform="translate(-632.00004,-260)" />
  <g
     id="layer4"
     style="display:inline"
     transform="translate(-632.00004,-260)" />
  <g
     id="g1812"
     style="display:inline"
     transform="translate(-632.00004,-260)" />
  <g
     id="g6217"
     style="display:inline"
     transform="translate(-632.00004,-260)" />
  <g
     id="layer3"
     style="display:inline"
     transform="translate(-632.00004,-260)" />
  <g
     id="layer1"
     style="display:inline"
     transform="translate(-632.00004,-260)" />
  <path
     style="color:#000000;display:inline;overflow:visible;visibility:visible;fill:#f4843f;fill-opacity:1;fill-rule:nonzero;stroke:none;stroke-width:1;marker:none;enable-background:accumulate"
     d="m 4.4056021,0.50000636 c -3.47603994,0 -3.85005997,0.30899 -3.83301997,3.32331004 v 4.1766902 4.1766794 c -0.017,3.01433 0.35698003,3.32332 3.83301997,3.32332 h 7.1899599 c 3.47605,0 3.83303,-0.30895 3.83303,-3.32332 V 8.0000066 3.8233164 c 0,-3.01436004 -0.35699,-3.32331004 -3.83303,-3.32331004 z"
     id="path918"
     inkscape:connector-curvature="0"
     sodipodi:nodetypes="scccssscsss" />
  <g
     style="display:inline;enable-background:new"
     id="g1047"
     transform="matrix(0.71428571,0,0,0.71428571,-229.15698,-135.02921)">
    <path
       style="font-style:normal;font-variant:normal;font-weight:normal;font-stretch:normal;font-size:15px;line-height:125%;font-family:Ubuntu;-inkscape-font-specification:Ubuntu;text-align:center;letter-spacing:0px;word-spacing:0px;writing-mode:lr-tb;text-anchor:middle;display:inline;fill:url(#linearGradient1049);fill-opacity:1;stroke:none;stroke-width:0.0875;enable-background:new"
       d="m 324.95108,199.00894 v 4.28754 c 0,0.61475 0.11599,1.05706 0.34248,1.32669 0.2157,0.25884 0.63604,0.39153 1.26157,0.39153 h 1.48562 l 1.95918,1.38308 1.95935,-1.38308 h 5.38774 c 0.62553,0 1.04587,-0.13269 1.26158,-0.39153 0.22648,-0.26963 0.34248,-0.71194 0.34248,-1.32669 v -4.28754 z"
       id="path1043"
       inkscape:connector-curvature="0"
       sodipodi:nodetypes="cscscccscscc" />
    <path
       style="font-style:normal;font-variant:normal;font-weight:normal;font-stretch:normal;font-size:15px;line-height:125%;font-family:Ubuntu;-inkscape-font-specification:Ubuntu;text-align:center;letter-spacing:0px;word-spacing:0px;writing-mode:lr-tb;text-anchor:middle;display:inline;fill:url(#linearGradient1051);fill-opacity:1;stroke:none;stroke-width:0.0875;enable-background:new"
       d="m 326.55513,194.99259 c -0.62549,-0.008 -1.04579,0.13979 -1.26149,0.39863 -0.22649,0.26963 -0.34256,0.712 -0.34256,1.32674 v 6.36286 l 3.08966,1.93388 1.95926,1.38301 1.95924,-1.38301 h 10e-6 l 6.99183,-5.30906 v -2.98768 c 0,-0.61475 -0.11607,-1.05711 -0.34255,-1.32674 -0.2157,-0.25884 -0.63596,-0.39863 -1.26149,-0.39863 h -1.04399 -6.90757 z"
       id="path1045"
       inkscape:connector-curvature="0"
       sodipodi:nodetypes="ccsccccccscsccc" />
  </g>
  <path
     style="color:#000000;display:inline;overflow:visible;visibility:visible;fill:#ffffff;fill-opacity:1;fill-rule:nonzero;stroke:none;stroke-width:1;marker:none;enable-background:accumulate;opacity:0.3"
     d="M 4.40625 0.5 C 0.93021006 0.5 0.55522563 0.80989871 0.57226562 3.8242188 L 0.57226562 4.3242188 C 0.55522563 1.3098987 0.93021006 1 4.40625 1 L 11.595703 1 C 15.071743 1 15.427734 1.3098588 15.427734 4.3242188 L 15.427734 3.8242188 C 15.427734 0.80985871 15.071743 0.5 11.595703 0.5 L 4.40625 0.5 z "
     id="path852" />
  <path
     id="path857"
     d="m 11.593219,15.5 c 3.47604,0 3.851025,-0.309899 3.833985,-3.324219 v -0.5 C 15.444244,14.690101 15.069259,15 11.593219,15 H 4.4037662 C 0.92772619,15 0.57173519,14.690141 0.57173519,11.675781 v 0.5 c 0,3.01436 0.355991,3.324219 3.83203101,3.324219 z"
     style="color:#000000;display:inline;overflow:visible;visibility:visible;opacity:0.2;fill:#000000;fill-opacity:1;fill-rule:nonzero;stroke:none;stroke-width:1;marker:none;enable-background:accumulate"
     inkscape:connector-curvature="0" />
</svg>
